X:407
T:91st At Modder River, The 
C:Joe Buchanan's Scottish Tome - Page 368.0
I:368 0
R:March
Z:Carl Allison
L:1/8
M:2/4
K:D
f | "Bm"B/>B/B/c/ B(c/<e/) | "D"fa/>e/ "E7"fe/>c/ | "A"A/>A/A/B/ A(c/<e/) | "A"fa/>A/ "F#m"cB/<A/ |
"Bm"B/>B/B/c/ B(c/<e/) | "D"fa/>e/ "E7"fe/>c/ | "A"B/<A/B/<c/ "F#m"B/<f/e/>c/ | "Bm"cB B :|
(c/<e/) | "Bm"f2 "F#m"(fa) | "D"f/>e/c/<e/ "E7"f(e/c/) | "A"A/>A/A/B/ A(c/<e/) | "D"fa/>A/ "F#m"cB/<A/ |
"Bm"f2 "F#m"(fa) | "D"f/>e/c/<e/ "F#m"f(e/>c/) | "A"B/>A/B/<c/ "F#m"B/<f/e/>c/ | "Bm"cB Bc/<e/ |
"Bm"f2 "F#m"(fa) | "D"f/>e/c/<e/ "E7"f(e/c/) | "A"A/>A/A/B/ A(c/<e/) | "D"fa/>A/ "F#m"cB/<A/ |
"A"B/>B/B/c/ B(c/<e/) | "D"fa/>e/ "E7"fe/>c/ | "A"B/<A/B/>c/ "F#m"B/<f/e/>c/ | "Bm"cB B |]
f | "Bm"B/>B/B/>c/ f/>B/c/<e/  | "D"f/>B/B "E7"fe/>c/ | "A"B/>A/B/>c/ e/>A/c/<e/ | "A"f/<a/A/a/ "F#m"f(e/>c/) |
"Bm"B/>B/B/>c/ f/>B/c/<e/  | "D"f/>B/B "E7"fe/>c/ |"A"B/<A/B/>c/ "F#m"B/<f/e/>c/ | "Bm"cB B :|
(c/<e/)| "Bm"f/>e/f/<a/ "D"f/>e/c/<e/ | "D"f/>a/^g/<a/ "E7"f(e/>c/) | "A"B/>B/B/>c/ e/>A/c/<e/ |"A"f/<a/A/a/ "F#m"f(e/>c/) |
"Bm"f/>e/f/<a/ "D"f/>e/c/<e/ | "D"f/>a/^g/<a/ "E7"f(e/>c/) | "A"B/>A/B/<c/ "F#m"B/<f/e/>c/ | "Bm"cB B(c/<e/) |
"Bm"f/>e/f/<a/ "D"f/>e/c/<e/ | "D"f/>a/^g/<a/ "E7"f(e/>c/) | "A"B/>B/B/>c/ e/>A/c/<e/ |"A"f/<a/A/a/ "F#m"f(e/>c/) |
"Bm"B/>B/B/>c/ f/>B/c/<e/  | "D"f/>B/B "E7"fe/>c/ |"A"B/<A/B/>c/ "F#m"B/<f/e/>c/ | "Bm"cB B |]

